public/icons/category.svg

<svg width="622" height="563" viewBox="0 0 622 563" fill="none" xmlns="http://www.w3.org/2000/svg">
<path d="M475.313 63.8323H227.616C222.589 63.8388 217.769 65.8398 214.214 69.3967C210.659 72.9535 208.659 77.7758 208.653 82.8059V206.983H246.773C249.561 206.976 252.305 207.68 254.745 209.03C257.185 210.38 259.24 212.33 260.716 214.697L273.928 235.74L286.562 255.846L288.933 259.626L303.387 282.629L303.553 282.892H494.276V82.8058C494.27 77.7757 492.27 72.9535 488.715 69.3967C485.16 65.8399 480.34 63.8388 475.313 63.8323Z" fill="#CCCCCC"/>
<path d="M377.131 101.793H254.399C251.146 101.793 248.025 103.087 245.725 105.388C243.424 107.69 242.132 110.812 242.132 114.068C242.132 117.323 243.424 120.445 245.725 122.747C248.025 125.049 251.146 126.342 254.399 126.342H377.131C380.384 126.342 383.505 125.049 385.805 122.747C388.106 120.445 389.398 117.323 389.398 114.068C389.398 110.812 388.106 107.69 385.805 105.388C383.505 103.087 380.384 101.793 377.131 101.793Z" fill="white"/>
<path d="M445.192 162.067H255.517C251.965 162.067 248.559 163.479 246.047 165.992C243.536 168.505 242.125 171.913 242.125 175.466C242.125 179.02 243.536 182.428 246.047 184.941C248.559 187.453 251.965 188.865 255.517 188.865H445.192C448.743 188.865 452.15 187.453 454.661 184.941C457.173 182.428 458.583 179.02 458.583 175.466C458.583 171.913 457.173 168.505 454.661 165.992C452.15 163.479 448.743 162.067 445.192 162.067Z" fill="white"/>
<path d="M457.301 216.67C456.223 214.367 454.512 212.418 452.368 211.052C450.223 209.686 447.734 208.959 445.192 208.957H255.517C255.227 208.957 254.951 208.97 254.661 208.984C257.136 210.337 259.221 212.304 260.716 214.697L273.928 235.74H445.192C447.444 235.741 449.66 235.173 451.634 234.088C453.608 233.003 455.276 231.437 456.484 229.535C457.692 227.633 458.4 225.456 458.543 223.207C458.686 220.958 458.259 218.71 457.301 216.67Z" fill="white"/>
<path d="M458.446 267.437C458.01 264.228 456.427 261.287 453.99 259.156C451.553 257.025 448.428 255.849 445.192 255.845H286.562L288.933 259.626L303.387 282.629H445.192C447.978 282.635 450.696 281.761 452.957 280.132C454.693 278.894 456.109 277.259 457.085 275.362C458.061 273.466 458.57 271.364 458.57 269.23C458.571 268.63 458.529 268.031 458.446 267.437Z" fill="white"/>
<path d="M609.85 170.775L590.541 163.226L494.276 125.638L379.103 80.6669C374.415 78.8467 369.197 78.9604 364.592 80.9831C359.988 83.0059 356.373 86.7727 354.54 91.4578L350.513 101.793L340.928 126.342L326.998 162.067L316.544 188.865L308.71 208.956L298.256 235.74L290.409 255.845L290.189 256.425L288.933 259.626L303.387 282.629L303.553 282.892H571.261C573.718 282.889 576.145 283.439 578.362 284.499C580.58 285.559 582.531 287.104 584.073 289.018L585.204 286.148L599.023 250.74L620.621 195.364C622.444 190.674 622.334 185.451 620.315 180.842C618.296 176.232 614.532 172.612 609.85 170.775Z" fill="#E4E4E4"/>
<path d="M504.593 170.416L494.276 166.387L390.26 125.776C387.227 124.602 383.853 124.675 380.874 125.981C377.895 127.286 375.553 129.718 374.358 132.745C373.183 135.781 373.257 139.16 374.565 142.141C375.873 145.123 378.308 147.465 381.337 148.655L415.692 162.068L458.184 178.654L494.276 192.757L495.669 193.295C498.7 194.472 502.074 194.398 505.05 193.089C508.027 191.78 510.362 189.342 511.544 186.312C512.726 183.281 512.658 179.905 511.355 176.925C510.051 173.945 507.619 171.604 504.593 170.416Z" fill="white"/>
<path d="M546.078 251.333L494.276 231.104L457.301 216.67L437.551 208.956L386.109 188.865L369.393 182.338C366.275 181.12 362.814 181.114 359.692 182.322C356.57 183.531 354.014 185.865 352.526 188.865C352.361 189.21 352.196 189.569 352.058 189.941C351.418 191.579 351.107 193.328 351.143 195.086C351.179 196.844 351.561 198.578 352.266 200.189C352.972 201.8 353.988 203.256 355.256 204.473C356.524 205.691 358.02 206.647 359.657 207.287L363.932 208.956L432.504 235.74L494.276 259.861L536.341 276.296C537.888 276.9 539.534 277.209 541.195 277.206C544.319 277.212 547.346 276.124 549.752 274.132C552.159 272.14 553.793 269.369 554.373 266.298C554.952 263.227 554.44 260.05 552.925 257.317C551.41 254.584 548.988 252.467 546.078 251.333Z" fill="white"/>
<path d="M494.276 281.429L490.952 280.132L458.446 267.437L428.752 255.846L377.255 235.741L352.347 226.012C350.708 225.371 348.959 225.059 347.2 225.094C345.441 225.13 343.706 225.512 342.094 226.219C340.482 226.925 339.026 227.943 337.808 229.214C336.59 230.484 335.634 231.983 334.995 233.623C334.356 235.264 334.046 237.014 334.084 238.774C334.122 240.534 334.506 242.27 335.214 243.881C335.923 245.493 336.942 246.949 338.214 248.166C339.485 249.383 340.984 250.338 342.624 250.975L355.092 255.846L417.291 280.132L423.691 282.63L424.353 282.892H498.014L494.276 281.429Z" fill="white"/>
<path d="M368.456 282.63L362.056 280.132L335.314 269.686C333.446 268.954 331.437 268.652 329.436 268.802C327.436 268.953 325.494 269.552 323.756 270.555C322.018 271.558 320.528 272.94 319.397 274.598C318.265 276.256 317.521 278.147 317.22 280.132C317.087 280.957 317.036 281.794 317.068 282.63C317.065 282.717 317.07 282.805 317.082 282.892H369.131L368.456 282.63Z" fill="white"/>
<path d="M423.691 282.629L417.291 280.132H317.22C317.087 280.957 317.036 281.794 317.068 282.629H303.387L303.553 282.892H424.353L423.691 282.629ZM423.691 282.629H303.387L303.553 282.892H424.353L423.691 282.629ZM423.691 282.629H303.387L303.553 282.892H424.353L423.691 282.629ZM424.353 282.892L423.691 282.629H303.387L303.553 282.892H424.353ZM182.987 559.217C178.622 559.21 174.437 557.472 171.35 554.384C168.264 551.296 166.526 547.109 166.52 542.741V223.473C166.524 219.103 168.259 214.913 171.346 211.822C174.433 208.731 178.619 206.991 182.987 206.983H208.653V204.223H182.987C177.889 204.233 173.002 206.265 169.398 209.873C165.794 213.481 163.767 218.372 163.761 223.473V542.741C163.766 546.431 164.83 550.042 166.828 553.145C168.826 556.247 171.672 558.709 175.029 560.238H418.009C417.788 559.907 417.568 559.562 417.347 559.217H182.987ZM585.204 286.148C583.413 284.247 581.252 282.732 578.854 281.697C576.456 280.663 573.872 280.13 571.261 280.132H305.083L290.189 256.425L289.83 255.845L277.197 235.74L263.047 213.22C261.312 210.469 258.911 208.202 256.066 206.629C253.22 205.056 250.024 204.228 246.773 204.223H182.987C177.889 204.233 173.002 206.265 169.398 209.873C165.794 213.481 163.767 218.372 163.761 223.473V542.741C163.766 546.431 164.83 550.042 166.828 553.145C168.826 556.247 171.672 558.709 175.029 560.238C177.524 561.388 180.24 561.981 182.987 561.977H571.261C574.012 561.981 576.732 561.388 579.233 560.238C582.589 558.709 585.436 556.247 587.434 553.145C589.431 550.042 590.496 546.431 590.5 542.741V299.381C590.504 294.453 588.607 289.712 585.204 286.148ZM587.742 542.741C587.734 547.111 585.995 551.299 582.906 554.388C579.816 557.477 575.628 559.213 571.261 559.217H182.987C178.622 559.21 174.437 557.472 171.35 554.384C168.264 551.296 166.526 547.109 166.52 542.741V223.473C166.524 219.103 168.259 214.913 171.346 211.822C174.433 208.731 178.619 206.991 182.987 206.983H246.773C249.561 206.976 252.305 207.68 254.745 209.03C257.185 210.38 259.24 212.33 260.716 214.697L273.928 235.74L286.562 255.845L288.933 259.626L303.387 282.629L303.553 282.892L571.261 282.892C575.631 282.895 579.821 284.634 582.911 287.725C586.001 290.817 587.738 295.009 587.742 299.381V542.741ZM423.691 282.629H303.387L303.553 282.892H424.353L423.691 282.629ZM423.691 282.629H303.387L303.553 282.892H424.353L423.691 282.629ZM423.691 282.629H303.387L303.553 282.892H424.353L423.691 282.629ZM423.691 282.629L417.291 280.132H305.083L290.189 256.425L288.933 259.626L303.387 282.629L303.553 282.892H424.353L423.691 282.629Z" fill="#3F3D56"/>
<path d="M107.475 397.094L99.5752 413.62L32.1109 390.998L43.7689 366.608L107.475 397.094Z" fill="#FFB8B8"/>
<path d="M88.4801 424.7L104.449 391.295L124.504 400.893L99.6766 452.829L98.143 452.095C93.2308 449.744 89.453 445.537 87.6409 440.4C85.8287 435.262 86.1306 429.615 88.4801 424.7Z" fill="#2F2E41"/>
<path d="M123.378 544.668L105.081 544.05L104.31 472.786L125.76 474.053L123.378 544.668Z" fill="#FFB8B8"/>
<path d="M90.4879 538.32L127.475 539.569L126.726 561.8L69.2184 559.858L69.2758 558.158C69.4594 552.713 71.7975 547.564 75.7755 543.844C79.7536 540.123 85.0458 538.137 90.4879 538.32Z" fill="#2F2E41"/>
<path d="M152.844 246.421C152.844 246.421 96.8437 232.227 71.4567 253.145L57.2699 294.234L0.522568 374.919L82.6569 424.226L97.5904 386.872L61.75 368.942L105.057 331.588L97.5904 528.817L125.964 533.299C125.964 533.299 188.685 289.752 152.844 246.421Z" fill="#2F2E41"/>
<path d="M67.8834 259.222L68.5659 258.008C75.761 245.21 74.5951 224.369 72.3503 209.14C70.4702 196.384 70.5267 173.905 70.9051 157.293C70.9986 151.685 72.9973 146.277 76.5723 141.958C80.1472 137.639 85.0854 134.666 90.5739 133.529C107.61 129.982 128.525 129.231 139.475 129.098C142.451 129.086 145.312 130.241 147.446 132.316C149.58 134.391 150.815 137.22 150.888 140.196C151.222 158.085 151.118 190.707 146.681 208.209C140.096 234.186 150.393 251.839 150.498 252.014L151.12 253.053L67.8834 259.222Z" fill="#E4E4E4"/>
<path d="M39.077 330.864C40.8999 329.99 42.5093 328.727 43.7918 327.164C45.0742 325.601 45.9985 323.776 46.4995 321.816C47.0006 319.857 47.0662 317.812 46.6917 315.825C46.3173 313.837 45.5119 311.956 44.3323 310.314L75.9368 173.955H52.0431L24.1506 307.626C21.5247 309.792 19.7839 312.846 19.2582 316.21C18.7325 319.574 19.4584 323.014 21.2983 325.878C23.1381 328.743 25.9642 330.832 29.2409 331.751C32.5176 332.67 36.0174 332.354 39.077 330.864Z" fill="#FFB8B8"/>
<path d="M231.245 196.638L178.503 146.72L164.248 166.687L199.885 198.065L153.149 235.198C152.812 235.175 152.475 235.147 152.132 235.147C149.256 235.144 146.44 235.97 144.021 237.527C141.602 239.083 139.683 241.304 138.492 243.923C137.302 246.543 136.891 249.45 137.308 252.297C137.726 255.144 138.954 257.81 140.847 259.977C142.739 262.144 145.216 263.719 147.979 264.514C150.743 265.31 153.678 265.292 156.432 264.462C159.185 263.633 161.642 262.027 163.508 259.837C165.373 257.647 166.569 254.966 166.951 252.114L167.099 252.262L231.245 196.638Z" fill="#FFB8B8"/>
<path d="M87.219 135.282C87.219 135.282 54.2832 129.877 51.2965 155.278C48.3098 180.678 46.8164 180.678 46.8164 180.678C46.8164 180.678 70.7101 176.196 76.6835 182.173C82.6569 188.149 87.219 135.282 87.219 135.282Z" fill="#E4E4E4"/>
<path d="M136.418 131.371C136.418 131.371 163.298 126.888 175.245 138.842C187.191 150.795 193.165 153.783 193.165 153.783C193.165 153.783 166.285 168.725 176.738 182.172C176.738 182.172 148.364 168.725 143.884 173.207C139.404 177.69 136.418 131.371 136.418 131.371Z" fill="#E4E4E4"/>
<path d="M112.841 44.6237C104.362 37.8484 102.134 24.7721 107.053 15.0949C111.973 5.41763 123.095 -0.412606 133.938 0.0227945C144.78 0.458195 154.997 6.68646 161.279 15.5396C170.102 27.9758 171.954 45.2604 183.687 54.9965C194.284 63.7902 209.466 63.5383 223.216 62.8388C227.851 62.6029 232.635 62.3296 236.794 60.2691C240.953 58.2087 244.352 53.8631 243.815 49.2508C247.27 54.7219 245.266 62.393 240.631 66.9072C235.997 71.4215 229.398 73.3127 222.974 74.0657C211.641 75.2576 200.193 73.4752 189.757 68.8941C179.322 64.3131 170.259 57.0913 163.461 47.9402C158.677 41.3368 154.985 33.6473 148.42 28.8126C141.856 23.9779 130.91 23.6413 126.88 30.7306C124.886 34.237 125.082 38.6351 123.249 42.2279C121.416 45.8206 115.464 47.7579 113.699 44.1312" fill="#2F2E41"/>
<path d="M111.545 116.679C134.395 116.679 152.919 98.1445 152.919 75.2816C152.919 52.4186 134.395 33.8845 111.545 33.8845C88.6941 33.8845 70.17 52.4186 70.17 75.2816C70.17 98.1445 88.6941 116.679 111.545 116.679Z" fill="#2F2E41"/>
<path d="M111.295 119.919C130.003 119.919 145.169 104.745 145.169 86.0273C145.169 67.3094 130.003 52.1355 111.295 52.1355C92.5871 52.1355 77.4214 67.3094 77.4214 86.0273C77.4214 104.745 92.5871 119.919 111.295 119.919Z" fill="#FFB8B8"/>
<path d="M80.4087 61.1358C85.0124 62.1433 83.5059 69.8701 87.1437 72.8672C90.4252 75.5708 95.151 72.7905 99.2811 71.7839C104.495 70.5132 109.953 72.3747 114.767 74.7479C119.581 77.1211 124.223 80.0664 129.475 81.172C134.727 82.2776 140.953 81.0315 143.897 76.5419C146.712 72.2491 145.676 66.4602 143.474 61.8228C140.736 56.0569 136.438 51.1735 131.068 47.7258C125.699 44.278 119.471 42.4038 113.092 42.3153C106.712 42.2268 100.435 43.9277 94.9721 47.2253C89.509 50.5228 85.0781 55.2852 82.1812 60.9729" fill="#2F2E41"/>
</svg>

<svg xmlns="http://www.w3.org/2000/svg" fill="none" viewBox="0 0 622 563">
  <path fill="#CCC" d="M475.313 63.832H227.616a18.983 18.983 0 0 0-13.402 5.565 19 19 0 0 0-5.561 13.409v124.177h38.12a16.381 16.381 0 0 1 13.943 7.714l13.212 21.043 12.634 20.106 2.371 3.78 14.454 23.003.166.263h190.723V82.806a19 19 0 0 0-5.561-13.41 18.984 18.984 0 0 0-13.402-5.564Z"/>
  <path fill="#fff" d="M377.131 101.793H254.399a12.267 12.267 0 0 0-12.267 12.275c0 3.255 1.292 6.377 3.593 8.679a12.262 12.262 0 0 0 8.674 3.595h122.732c3.253 0 6.374-1.293 8.674-3.595a12.276 12.276 0 0 0-8.674-20.954Zm68.061 60.274H255.517a13.39 13.39 0 0 0-9.47 3.925 13.404 13.404 0 0 0 0 18.949 13.393 13.393 0 0 0 9.47 3.924h189.675a13.39 13.39 0 0 0 13.391-13.399 13.4 13.4 0 0 0-3.922-9.474 13.387 13.387 0 0 0-9.469-3.925Zm12.109 54.603a13.38 13.38 0 0 0-12.109-7.713H255.517c-.29 0-.566.013-.856.027a16.434 16.434 0 0 1 6.055 5.713l13.212 21.043h171.264a13.361 13.361 0 0 0 11.292-6.205 13.388 13.388 0 0 0 .817-12.865Zm1.145 50.767a13.395 13.395 0 0 0-13.254-11.592h-158.63l2.371 3.781 14.454 23.003h141.805a13.236 13.236 0 0 0 7.765-2.497 13.375 13.375 0 0 0 5.613-10.902c.001-.6-.041-1.199-.124-1.793Z"/>
  <path fill="#E4E4E4" d="m609.85 170.775-19.309-7.549-96.265-37.588-115.173-44.971a18.99 18.99 0 0 0-24.563 10.79l-4.027 10.336-9.585 24.549-13.93 35.725-10.454 26.798-7.834 20.091-10.454 26.784-7.847 20.105-.22.58-1.256 3.201 14.454 23.003.166.263h267.708a16.436 16.436 0 0 1 12.812 6.126l1.131-2.87 13.819-35.408 21.598-55.376a19.021 19.021 0 0 0-.306-14.522 19.003 19.003 0 0 0-10.465-10.067Z"/>
  <path fill="#fff" d="m504.593 170.416-10.317-4.029-104.016-40.611a12.309 12.309 0 0 0-9.386.205 12.323 12.323 0 0 0-6.516 6.764 12.32 12.32 0 0 0 6.979 15.91l34.355 13.413 42.492 16.586 36.092 14.103 1.393.538a12.269 12.269 0 0 0 15.875-6.983 12.281 12.281 0 0 0-6.951-15.896Zm41.485 80.917-51.802-20.229-36.975-14.434-19.75-7.714-51.442-20.091-16.716-6.527a13.386 13.386 0 0 0-16.867 6.527c-.165.345-.33.704-.468 1.076a13.387 13.387 0 0 0 .208 10.248 13.384 13.384 0 0 0 7.391 7.098l4.275 1.669 68.572 26.784 61.772 24.121 42.065 16.435a13.28 13.28 0 0 0 4.854.91 13.394 13.394 0 0 0 11.73-19.889 13.387 13.387 0 0 0-6.847-5.984Zm-51.802 30.096-3.324-1.297-32.506-12.695-29.694-11.591-51.497-20.105-24.908-9.729a13.4 13.4 0 0 0-5.147-.918 13.394 13.394 0 0 0-8.986 23.072 13.385 13.385 0 0 0 4.41 2.809l12.468 4.871 62.199 24.286 6.4 2.498.662.262h73.661l-3.738-1.463Zm-125.82 1.201-6.4-2.498-26.742-10.446a13.371 13.371 0 0 0-11.558.869 13.368 13.368 0 0 0-6.536 9.577 12.656 12.656 0 0 0-.152 2.498c-.003.087.002.175.014.262h52.049l-.675-.262Z"/>
  <path fill="#3F3D56" d="m423.691 282.629-6.4-2.497H317.22a12.65 12.65 0 0 0-.152 2.497h-13.681l.166.263h120.8l-.662-.263Zm0 0H303.387l.166.263h120.8l-.662-.263Zm0 0H303.387l.166.263h120.8l-.662-.263Zm.662.263-.662-.263H303.387l.166.263h120.8ZM182.987 559.217a16.493 16.493 0 0 1-16.467-16.476V223.473a16.508 16.508 0 0 1 4.826-11.651 16.494 16.494 0 0 1 11.641-4.839h25.666v-2.76h-25.666a19.262 19.262 0 0 0-13.589 5.65 19.276 19.276 0 0 0-5.637 13.6v319.268a19.265 19.265 0 0 0 3.067 10.404 19.242 19.242 0 0 0 8.201 7.093h242.98c-.221-.331-.441-.676-.662-1.021h-234.36Zm402.217-273.069a19.14 19.14 0 0 0-13.943-6.016H305.083l-14.894-23.707-.359-.58-12.633-20.105-14.15-22.52a19.27 19.27 0 0 0-16.274-8.997h-63.786a19.262 19.262 0 0 0-13.589 5.65 19.276 19.276 0 0 0-5.637 13.6v319.268a19.265 19.265 0 0 0 3.067 10.404 19.242 19.242 0 0 0 8.201 7.093 18.947 18.947 0 0 0 7.958 1.739h388.274a19.016 19.016 0 0 0 7.972-1.739 19.248 19.248 0 0 0 11.267-17.497v-243.36a19.14 19.14 0 0 0-5.296-13.233Zm2.538 256.593a16.514 16.514 0 0 1-4.836 11.647 16.492 16.492 0 0 1-11.645 4.829H182.987a16.493 16.493 0 0 1-16.467-16.476V223.473a16.508 16.508 0 0 1 4.826-11.651 16.494 16.494 0 0 1 11.641-4.839h63.786a16.381 16.381 0 0 1 13.943 7.714l13.212 21.043 12.634 20.105 2.371 3.781 14.454 23.003.166.263h267.708a16.49 16.49 0 0 1 11.65 4.833 16.51 16.51 0 0 1 4.831 11.656v243.36ZM423.691 282.629H303.387l.166.263h120.8l-.662-.263Zm0 0H303.387l.166.263h120.8l-.662-.263Zm0 0H303.387l.166.263h120.8l-.662-.263Zm0 0-6.4-2.497H305.083l-14.894-23.707-1.256 3.201 14.454 23.003.166.263h120.8l-.662-.263Z"/>
  <path fill="#FFB8B8" d="m107.475 397.094-7.9 16.526-67.464-22.622 11.658-24.39 63.706 30.486Z"/>
  <path fill="#2F2E41" d="m88.48 424.7 15.969-33.405 20.055 9.598-24.827 51.936-1.534-.734A20.54 20.54 0 0 1 87.641 440.4a20.552 20.552 0 0 1 .84-15.7Z"/>
  <path fill="#FFB8B8" d="m123.378 544.668-18.297-.618-.771-71.264 21.45 1.267-2.382 70.615Z"/>
  <path fill="#2F2E41" d="m90.488 538.32 36.987 1.249-.749 22.231-57.508-1.942.058-1.7a20.546 20.546 0 0 1 6.5-14.314 20.526 20.526 0 0 1 14.712-5.524Zm62.356-291.899s-56-14.194-81.387 6.724L57.27 294.234.523 374.919l82.134 49.307 14.933-37.354-35.84-17.93 43.307-37.354-7.467 197.229 28.374 4.482s62.721-243.547 26.88-286.878Z"/>
  <path fill="#E4E4E4" d="m67.883 259.222.683-1.214c7.195-12.798 6.03-33.639 3.784-48.868-1.88-12.756-1.823-35.235-1.445-51.847a24.694 24.694 0 0 1 5.667-15.335 24.674 24.674 0 0 1 14.002-8.429c17.036-3.547 37.951-4.298 48.901-4.431a11.367 11.367 0 0 1 7.971 3.218 11.38 11.38 0 0 1 3.442 7.88c.334 17.889.23 50.511-4.207 68.013-6.585 25.977 3.712 43.63 3.817 43.805l.622 1.039-83.237 6.169Z"/>
  <path fill="#FFB8B8" d="M39.077 330.864a13.838 13.838 0 0 0 5.255-20.55l31.605-136.359H52.043L24.151 307.626a13.912 13.912 0 0 0 5.09 24.125c3.277.919 6.776.603 9.836-.887Zm192.168-134.226-52.742-49.918-14.255 19.967 35.637 31.378-46.736 37.133c-.337-.023-.674-.051-1.017-.051a14.974 14.974 0 0 0-14.824 17.15 14.98 14.98 0 0 0 10.671 12.217 14.967 14.967 0 0 0 18.972-12.4l.148.148 64.146-55.624Z"/>
  <path fill="#E4E4E4" d="M87.219 135.282s-32.936-5.405-35.922 19.996c-2.987 25.4-4.48 25.4-4.48 25.4s23.893-4.482 29.866 1.495c5.974 5.976 10.536-46.891 10.536-46.891Zm49.199-3.911s26.88-4.483 38.827 7.471c11.946 11.953 17.92 14.941 17.92 14.941s-26.88 14.942-16.427 28.389c0 0-28.374-13.447-32.854-8.965-4.48 4.483-7.466-41.836-7.466-41.836Z"/>
  <path fill="#2F2E41" d="M112.841 44.624c-8.479-6.776-10.707-19.852-5.788-29.53 4.92-9.676 16.042-15.507 26.885-15.071 10.842.435 21.059 6.663 27.341 15.517 8.823 12.436 10.675 29.72 22.408 39.456 10.597 8.794 25.779 8.542 39.529 7.843 4.635-.236 9.419-.51 13.578-2.57 4.159-2.06 7.558-6.406 7.021-11.018 3.455 5.47 1.451 13.142-3.184 17.656-4.634 4.514-11.233 6.406-17.657 7.159a65.575 65.575 0 0 1-33.217-5.172 65.616 65.616 0 0 1-26.296-20.954c-4.784-6.603-8.476-14.293-15.041-19.127-6.564-4.835-17.51-5.172-21.54 1.918-1.994 3.506-1.798 7.904-3.631 11.497-1.833 3.593-7.785 5.53-9.55 1.903"/>
  <path fill="#2F2E41" d="M111.545 116.679c22.85 0 41.374-18.535 41.374-41.397 0-22.863-18.524-41.397-41.374-41.397S70.17 52.419 70.17 75.281c0 22.862 18.524 41.397 41.375 41.397Z"/>
  <path fill="#FFB8B8" d="M111.295 119.919c18.708 0 33.874-15.174 33.874-33.892 0-18.718-15.166-33.892-33.874-33.892-18.708 0-33.874 15.174-33.874 33.892 0 18.718 15.166 33.892 33.874 33.892Z"/>
  <path fill="#2F2E41" d="M80.409 61.136c4.603 1.007 3.097 8.734 6.735 11.731 3.281 2.704 8.007-.077 12.137-1.083 5.214-1.27 10.672.59 15.486 2.964 4.814 2.373 9.456 5.318 14.708 6.424 5.252 1.106 11.478-.14 14.422-4.63 2.815-4.293 1.779-10.082-.423-14.72a34.172 34.172 0 0 0-12.406-14.096 34.146 34.146 0 0 0-36.096-.5 34.173 34.173 0 0 0-12.79 13.747"/>
</svg>
